X: 1
T: Moldavian Zhok #1   [Dm]
Z: 2014 John Chambers <jc:trillian.mit.edu>
S: printed copy of unknown origin
Q: "Zhok"
M: 3/8
L: 1/16
Q: 3/8=120
K: Dm
|:\
"Dm"A,3DEF | E3D (3AFD | "Dm"A,3DEF | E3D (3AFD | A,3DEF | "Gm"G3FED |\
[1,3 "E7"^G3FED | "A"A3A,{C}B,A, :|2,4 "E7"^G3F"A7"EF | "Dm"D6 :|
|:\
"Dm"d4"D7"c2 | "Gm"B3A"C7"B=B | "F"c2A4- | A6 |\
"Gm"B4A2 | G3^FG^G | "A7"A6- | A6 |
"Gm"G4F2 | "A7"E4G2 | "Dm"F4E2 | D4F2 |\
"A7"E3A,^CE |\
[1 A3GFG | "Dm"A6- | "(A7)"A6 :|\
[2 "A7"A3GFE | "Dm"D3AFA | D3C"C7"DC |]
|:\
"F"A6- | A3C"(C7)"DC | "F"A6- | A3A"(C7)"B=B |\
"F"c3_cBA | "C7"G3ABd | "F"c2A4- | A3C"(C7)"DC |
"F"A6- | A3C"(C7)"DC | "F"A6- | A3AGF |\
"A7"E3D^CB, | ^C3GFE | "Dm"D3A,FA, | D6 :|

%%sep 1 1 500
%%sep 1 1 500

